picto/ticket-machine-de-framed.svg

<svg class="color-immutable" width="30" height="30" viewBox="0 0 30 30" fill="none" xmlns="http://www.w3.org/2000/svg"><path d="M0 0H30V30H0V0Z" fill="#2D327D"/><path d="M25.5 3C26.325 3 27 3.675 27 4.5V25.5C27 26.325 26.325 27 25.5 27H4.5C3.675 27 3 26.325 3 25.5V4.5C3 3.675 3.675 3 4.5 3H25.5ZM25.5 2.625H4.5C3.46613 2.625 2.625 3.46613 2.625 4.5V25.5C2.625 26.5339 3.46613 27.375 4.5 27.375H25.5C26.5339 27.375 27.375 26.5339 27.375 25.5V4.5C27.375 3.46613 26.5339 2.625 25.5 2.625Z" fill="white"/><path d="M7.33349 5.99542L8.18714 8.24872H7.67189L7.49346 7.7442H6.65826L6.47526 8.24872H5.96924L6.82596 5.99542H7.33349ZM7.37346 7.38427L7.07504 6.53677L6.77511 7.38427H7.37346Z" fill="white"/><path d="M9.8575 6.56909V8.24872H9.433V8.00414C9.30483 8.19794 9.12535 8.29484 8.89465 8.29484C8.69365 8.29484 8.54193 8.22764 8.4394 8.09332C8.4004 8.04104 8.3725 7.97947 8.35555 7.90874C8.3386 7.83802 8.3302 7.74569 8.3302 7.63192V6.56909H8.77623V7.49347C8.77623 7.58984 8.77908 7.65802 8.7847 7.69807C8.79033 7.73804 8.80188 7.77187 8.81928 7.79962C8.86645 7.87447 8.94693 7.91189 9.06078 7.91189C9.20125 7.91189 9.30325 7.84987 9.36685 7.72582C9.3976 7.66529 9.41298 7.55609 9.41298 7.39822V6.56909H9.8575Z" fill="white"/><path d="M11.0942 6.56602V6.88132H10.7604V7.6704C10.7604 7.76475 10.7691 7.82475 10.7866 7.85032C10.8122 7.88722 10.8696 7.90567 10.9589 7.90567C10.9937 7.90567 11.0388 7.90312 11.0942 7.89795V8.2548C10.9937 8.26605 10.9015 8.27167 10.8174 8.27167C10.6903 8.27167 10.5934 8.25735 10.5267 8.22862C10.4231 8.1825 10.3586 8.09842 10.3329 7.9764C10.3217 7.92412 10.316 7.8159 10.316 7.65187V6.88132H10.0437V6.56602H10.316V6.17227H10.7605V6.56602H11.0942Z" fill="white"/><path d="M12.1 6.52298C12.3441 6.52298 12.5435 6.60398 12.6983 6.76598C12.8511 6.92595 12.9275 7.13926 12.9275 7.40581C12.9275 7.68166 12.846 7.90155 12.6829 8.06565C12.5302 8.21843 12.3313 8.29485 12.0862 8.29485C11.8247 8.29485 11.6165 8.20973 11.4617 8.03955C11.314 7.87755 11.2402 7.66733 11.2402 7.40896C11.2402 7.15463 11.312 6.94801 11.4556 6.78908C11.6145 6.61163 11.8294 6.52298 12.1 6.52298ZM12.0769 6.87053C11.959 6.87053 11.8652 6.91823 11.7955 7.01355C11.7247 7.10993 11.6893 7.24171 11.6893 7.40888C11.6893 7.58221 11.7242 7.71495 11.794 7.80728C11.8657 7.90058 11.9637 7.94723 12.0877 7.94723C12.2036 7.94723 12.2954 7.9047 12.3631 7.81958C12.4399 7.72523 12.4784 7.58836 12.4784 7.40888C12.4784 7.24073 12.4446 7.11 12.3769 7.0167C12.3061 6.91928 12.2062 6.87053 12.0769 6.87053Z" fill="white"/><path d="M13.655 6.57368V6.79673C13.7114 6.71985 13.7673 6.66293 13.8227 6.62603C13.9221 6.55733 14.039 6.52298 14.1734 6.52298C14.3907 6.52298 14.543 6.61523 14.6302 6.7998C14.7614 6.61523 14.9399 6.52298 15.1655 6.52298C15.3398 6.52298 15.4751 6.57503 15.5715 6.67913C15.6679 6.78323 15.7161 6.93008 15.7161 7.11975V8.24873H15.2701V7.25048C15.2701 7.14278 15.2583 7.06748 15.2347 7.02435C15.1926 6.94538 15.1168 6.90593 15.0071 6.90593C14.8738 6.90593 14.7809 6.96233 14.7287 7.07513C14.7051 7.12538 14.6933 7.21508 14.6933 7.34431V8.24873H14.2487V7.23203C14.2487 7.13258 14.237 7.0608 14.2133 7.0167C14.1754 6.9429 14.1047 6.90593 14.0011 6.90593C13.9375 6.90593 13.8803 6.92183 13.8296 6.95363C13.7788 6.98543 13.7406 7.029 13.715 7.08435C13.6893 7.1397 13.6765 7.22641 13.6765 7.34431V8.24873H13.2305V6.57368H13.655Z" fill="white"/><path d="M17.591 8.24864H17.1358C17.1163 8.18301 17.1065 8.12714 17.1065 8.08101C16.9671 8.22351 16.7871 8.29484 16.5667 8.29484C16.3944 8.29484 16.2601 8.25486 16.1637 8.17484C16.0529 8.08259 15.9976 7.95389 15.9976 7.78881C15.9976 7.57859 16.0924 7.43301 16.2821 7.35201C16.359 7.31916 16.5005 7.28894 16.7066 7.26126C16.884 7.23771 16.9945 7.21484 17.038 7.19279C17.0816 7.17074 17.1034 7.12641 17.1034 7.05974C17.1034 6.91311 17.006 6.83976 16.8112 6.83976C16.7077 6.83976 16.6321 6.85821 16.5844 6.89511C16.5367 6.93201 16.5052 6.99614 16.4898 7.08734H16.0684C16.0817 6.90074 16.1519 6.75996 16.2791 6.66516C16.4062 6.57029 16.5872 6.52289 16.822 6.52289C17.0815 6.52289 17.2732 6.57569 17.3973 6.68129C17.4547 6.73049 17.4929 6.78329 17.5119 6.83969C17.5309 6.89609 17.5403 6.98526 17.5403 7.10729C17.5403 7.13294 17.5387 7.24574 17.5357 7.44569C17.5336 7.64766 17.5326 7.76354 17.5326 7.79331C17.5326 7.91534 17.5362 8.00481 17.5434 8.06174C17.5505 8.11874 17.5664 8.18099 17.591 8.24864ZM17.1004 7.43811C17.0429 7.47404 16.9384 7.50216 16.7866 7.52271C16.6799 7.53914 16.603 7.56014 16.5559 7.58579C16.4892 7.62171 16.4559 7.68269 16.4559 7.76879C16.4559 7.83854 16.4779 7.89284 16.522 7.93184C16.5661 7.97084 16.6276 7.99026 16.7066 7.99026C16.8379 7.99026 16.944 7.94414 17.025 7.85181C17.0537 7.82001 17.0734 7.78694 17.0842 7.75259C17.095 7.71824 17.1004 7.67286 17.1004 7.61646V7.43811Z" fill="white"/><path d="M18.7892 6.56602V6.88132H18.4555V7.6704C18.4555 7.76475 18.4642 7.82475 18.4816 7.85032C18.5073 7.88722 18.5647 7.90567 18.6539 7.90567C18.6888 7.90567 18.7339 7.90312 18.7893 7.89795V8.2548C18.6888 8.26605 18.5965 8.27167 18.5125 8.27167C18.3853 8.27167 18.2884 8.25735 18.2218 8.22862C18.1182 8.1825 18.0536 8.09842 18.028 7.9764C18.0167 7.92412 18.011 7.8159 18.011 7.65187V6.88132H17.7388V6.56602H18.011V6.17227H18.4555V6.56602H18.7892Z" fill="white"/><path fill-rule="evenodd" clip-rule="evenodd" d="M15.0001 9.75V11.2501H20.2501V15.0001H22.5V15.75H20.2501V16.5H22.5V17.25H20.2501V21.75H24.0001V9.75H15.0001ZM22.5 12.75H22.0509V11.2772H21.891H21.731H21.5757H21.5218V10.9509C21.6315 10.9478 21.721 10.9366 21.7902 10.9171C21.8595 10.8976 21.9228 10.8658 21.9802 10.8217C22.0632 10.7581 22.1192 10.6508 22.1478 10.5H22.5V12.75Z" fill="white"/><path fill-rule="evenodd" clip-rule="evenodd" d="M10.5 12V24H19.5V12H10.5ZM17.9999 19.5H11.9999V18.75H17.9999V19.5ZM17.9999 18.0001H11.9999V17.2501H18L17.9999 18.0001ZM18 15.75H16.3804C16.3804 15.628 16.4001 15.5116 16.4396 15.4009C16.479 15.2901 16.5347 15.1948 16.6064 15.1148C16.6618 15.0533 16.7267 14.9933 16.801 14.9349C16.8753 14.8765 17.0232 14.7693 17.2447 14.6134C17.3524 14.5386 17.4277 14.4689 17.4708 14.4043C17.5139 14.3397 17.5354 14.2649 17.5354 14.1797C17.5354 14.0813 17.5064 14.0015 17.4485 13.9405C17.3906 13.8795 17.3144 13.8491 17.2201 13.8491C16.9883 13.8491 16.8689 14.0157 16.8617 14.3489H16.4295C16.4295 14.3274 16.4295 14.311 16.4295 14.2997C16.4295 14.0269 16.5059 13.8158 16.6587 13.6661C16.8074 13.5205 16.9997 13.4477 17.2355 13.4477C17.4446 13.4477 17.6195 13.5071 17.7599 13.6261C17.9127 13.7553 17.9891 13.9291 17.9891 14.1475C17.9891 14.3382 17.9281 14.5022 17.8061 14.6396C17.7661 14.6848 17.7287 14.7209 17.6939 14.7481C17.659 14.7752 17.5672 14.8406 17.4185 14.9442C17.277 15.0426 17.1758 15.118 17.1148 15.1703C17.0537 15.2226 16.9971 15.2826 16.9448 15.3503H18V15.75Z" fill="white"/></svg>

<svg class="color-immutable" width="30" height="30" viewBox="0 0 30 30" fill="none" xmlns="http://www.w3.org/2000/svg"><g clip-path="url(#a)"><path d="M0 0h30v30H0V0Z" fill="#2D327D"/><path d="M25.5 3c.825 0 1.5.675 1.5 1.5v21c0 .825-.675 1.5-1.5 1.5h-21c-.825 0-1.5-.675-1.5-1.5v-21C3 3.675 3.675 3 4.5 3h21Zm0-.375h-21A1.877 1.877 0 0 0 2.625 4.5v21c0 1.034.841 1.875 1.875 1.875h21a1.877 1.877 0 0 0 1.875-1.875v-21A1.877 1.877 0 0 0 25.5 2.625Z" fill="#fff"/><path d="m7.333 5.995.854 2.254h-.515l-.179-.505h-.835l-.183.505H5.97l.857-2.254h.507Zm.04 1.39-.298-.848-.3.847h.598ZM9.857 6.57v1.679h-.424v-.245a.61.61 0 0 1-.538.29c-.201 0-.353-.066-.456-.2a.5.5 0 0 1-.083-.185 1.227 1.227 0 0 1-.026-.277V6.569h.446v.924c0 .097.003.165.009.205.005.04.017.074.034.102.047.074.128.112.242.112a.32.32 0 0 0 .306-.186c.03-.06.046-.17.046-.328V6.57h.444ZM11.094 6.566v.315h-.334v.79c0 .094.01.154.027.18.025.036.083.055.172.055.035 0 .08-.003.135-.008v.357c-.1.011-.192.017-.277.017a.764.764 0 0 1-.29-.043.332.332 0 0 1-.194-.253 1.939 1.939 0 0 1-.017-.324v-.77h-.272v-.316h.272v-.394h.444v.394h.334ZM12.1 6.523a.79.79 0 0 1 .598.243c.153.16.23.373.23.64 0 .276-.082.496-.245.66a.807.807 0 0 1-.597.229c-.261 0-.47-.085-.624-.255-.148-.162-.222-.373-.222-.631 0-.254.072-.461.216-.62.159-.177.373-.266.644-.266Zm-.023.348a.331.331 0 0 0-.281.143.655.655 0 0 0-.107.395c0 .173.035.306.105.398a.35.35 0 0 0 .294.14.333.333 0 0 0 .275-.127c.077-.095.115-.232.115-.411 0-.168-.033-.299-.101-.392a.349.349 0 0 0-.3-.146ZM13.655 6.574v.223a.601.601 0 0 1 .518-.274c.218 0 .37.092.457.277a.623.623 0 0 1 .535-.277c.175 0 .31.052.407.156.096.104.144.251.144.44v1.13h-.446V7.25a.51.51 0 0 0-.035-.226c-.042-.079-.118-.118-.228-.118-.133 0-.226.056-.278.17a.705.705 0 0 0-.036.268v.905h-.444V7.232c0-.1-.012-.171-.036-.215-.038-.074-.108-.111-.212-.111a.316.316 0 0 0-.171.048.299.299 0 0 0-.115.13.654.654 0 0 0-.038.26v.905h-.447V6.574h.425ZM17.591 8.249h-.455a.606.606 0 0 1-.03-.168.722.722 0 0 1-.54.214c-.172 0-.306-.04-.402-.12a.475.475 0 0 1-.166-.386c0-.21.094-.356.284-.437.077-.033.218-.063.425-.09.177-.024.287-.047.331-.07.044-.021.065-.066.065-.132 0-.147-.097-.22-.292-.22-.103 0-.179.018-.227.055-.047.037-.079.101-.094.192h-.422a.545.545 0 0 1 .211-.422c.127-.095.308-.142.543-.142.26 0 .451.053.575.158.058.05.096.102.115.159a.911.911 0 0 1 .028.267l-.004.339-.003.347c0 .122.003.212.01.269.008.057.023.119.048.187Zm-.49-.81a.866.866 0 0 1-.314.084.756.756 0 0 0-.231.063c-.067.036-.1.097-.1.183 0 .07.022.124.066.163a.27.27 0 0 0 .185.058.403.403 0 0 0 .318-.138.27.27 0 0 0 .06-.1.467.467 0 0 0 .015-.136v-.178ZM18.79 6.566v.315h-.334v.79c0 .094.008.154.026.18.025.036.083.055.172.055.035 0 .08-.003.135-.008v.357c-.1.011-.193.017-.277.017a.763.763 0 0 1-.29-.043.332.332 0 0 1-.194-.253 1.924 1.924 0 0 1-.017-.324v-.77h-.272v-.316h.272v-.394h.445v.394h.333Z" fill="#fff"/><path fill-rule="evenodd" clip-rule="evenodd" d="M15 9.75v1.5h5.25V15h2.25v.75h-2.25v.75h2.25v.75h-2.25v4.5H24v-12h-9Zm7.5 3h-.45v-1.473h-.528v-.326c.11-.003.199-.014.268-.034a.557.557 0 0 0 .19-.095c.083-.064.14-.171.168-.322h.352v2.25Z" fill="#fff"/><path fill-rule="evenodd" clip-rule="evenodd" d="M10.5 12v12h9V12h-9Zm7.5 7.5h-6v-.75h6v.75Zm0-1.5h-6v-.75h6V18Zm0-2.25h-1.62c0-.122.02-.238.06-.35a.85.85 0 0 1 .166-.285 1.55 1.55 0 0 1 .195-.18c.074-.059.222-.166.444-.322a.861.861 0 0 0 .226-.209.395.395 0 0 0 .064-.224.333.333 0 0 0-.087-.24.3.3 0 0 0-.228-.09c-.232 0-.351.166-.358.499h-.432v-.05c0-.272.076-.483.229-.633a.79.79 0 0 1 .576-.218c.21 0 .384.06.525.178.153.13.23.303.23.522 0 .19-.062.354-.184.492a.867.867 0 0 1-.112.108 9.367 9.367 0 0 1-.275.196 4.166 4.166 0 0 0-.304.226 1.207 1.207 0 0 0-.17.18H18v.4Z" fill="#fff"/></g><defs><clipPath id="a"><path fill="#fff" d="M0 0h30v30H0z"/></clipPath></defs></svg>
